X: 29428
T: Nighean Dubh Alasdair
R: strathspey
M: 4/4
K: Amixolydian
a|A/A/A A>B G>AB>d|e>AA>B d/c/B/A/ G>B|A/A/A A>B G>AB>d|e<AA>B G<EE:|
a|g<ee>g d>ed>B|g<ee>g g>ab>a|g<ee>g d>ed>B|e<AA>B G<EE>a|
g<ee>g d>ed>B|g<ee>g g>ab>a|g<be<g d<gB<b|e<AA>B G<EE||

